docs/icons/vk.svg

<svg width="20" height="20" viewBox="0 0 20 20" fill="none" xmlns="http://www.w3.org/2000/svg">
<g clip-path="url(#clip0_202_119)">
<path d="M17.8023 11.9572L17.7915 11.9471C17.6207 11.7895 17.0977 11.2804 16.9213 11.058C16.7142 10.7804 16.762 10.5985 16.9171 10.326C17.1132 9.98161 17.5061 9.45335 17.9219 8.89396C19.2537 7.10288 20.1136 5.86295 19.9366 4.98221L19.8412 4.51178L14.9228 4.51391C14.9056 4.5603 14.6489 5.68777 13.5659 7.60764C12.7805 8.9997 12.2653 9.43702 12.0839 9.51423L12.0558 9.50568C11.9968 9.43275 11.8936 9.23591 11.8512 8.72855C11.807 8.19709 11.8462 7.55362 11.8842 6.93137C11.9286 6.20169 11.9669 5.5715 11.8752 5.1206L11.7258 4.38605C11.5453 4.35721 10.8844 4.10223 9.04314 4.08285C7.44905 4.06653 6.98076 4.29678 6.75081 4.49972L5.99015 5.17096L6.95161 5.49445C7.31752 5.61758 7.43898 5.75964 7.53862 6.46384C7.60362 6.92282 7.63765 7.69416 7.56746 8.38279C7.4666 9.37019 7.22475 9.5539 7.21223 9.56367C7.17058 9.54948 6.81734 9.39491 6.20408 8.09836C5.77867 7.19916 5.40574 6.13547 5.13322 5.35879C4.82133 4.46936 4.87748 4.65872 4.71925 4.23849L-0.0390625 4.23834L0.26886 5.03485C1.55259 8.35868 2.73041 10.9544 4.30665 12.8187C6.04814 14.8785 8.21245 15.957 11.1278 15.957H11.7137V15.371C11.7137 14.8232 11.7591 14.4288 11.8563 14.1297C11.9156 13.9475 11.9945 13.7969 12.0774 13.639C12.2003 13.4064 12.3206 13.3068 12.3862 13.292C12.4457 13.2784 12.5504 13.3221 12.6663 13.4086C12.9993 13.6568 13.2636 13.9831 13.5434 14.3285C13.9472 14.827 14.3647 15.3423 15.027 15.6797C15.389 15.864 16.0524 15.9571 16.4176 15.9571C16.5142 15.9571 19.9567 15.957 19.961 15.957L19.9358 15.3469C19.8983 14.4347 19.1803 13.2941 17.8023 11.9572ZM16.4403 14.7851H16.4308C16.1791 14.7892 15.6986 14.7067 15.5588 14.6355C15.1184 14.4112 14.8107 14.0311 14.4541 13.5911C14.1411 13.2046 13.8175 12.8049 13.3669 12.4691C13.0025 12.1973 12.6715 12.1178 12.4088 12.1178C12.3038 12.1178 12.2095 12.1305 12.1286 12.1488C11.8236 12.2175 11.3874 12.4369 11.0405 13.0929C10.9427 13.2795 10.8318 13.4908 10.7419 13.7673C10.6478 14.0566 10.5892 14.3781 10.5612 14.7692C8.36427 14.6444 6.64995 13.7753 5.20158 12.0621C3.85499 10.4693 2.79557 8.24134 1.67359 5.40976C1.75476 5.40976 3.78892 5.41006 3.909 5.41006C3.94578 5.51337 3.98545 5.62659 4.02757 5.74652C4.3213 6.58438 4.72367 7.73169 5.19776 8.71009C5.87663 10.1112 6.49659 10.736 7.20781 10.736C7.56288 10.736 7.88133 10.5856 8.12868 10.3007C8.48131 9.89463 8.68608 9.22446 8.75475 8.25171C8.80892 7.48465 8.75856 6.72064 8.69905 6.29965C8.64992 5.95328 8.57988 5.58966 8.40898 5.26388C9.13729 5.23108 10.1125 5.28296 10.7303 5.37161C10.7865 5.6774 10.7498 6.27844 10.7144 6.85996C10.6288 8.26468 10.5405 9.71427 11.284 10.3925C11.4148 10.5119 11.5535 10.5758 11.5575 10.5784L11.9359 10.6945C12.0819 10.6495 12.9277 11.0786 14.5293 8.28361C15.0424 7.38807 15.5202 6.35611 15.7775 5.68213C16.3741 5.68091 18.4067 5.6832 18.6455 5.6835C18.3072 6.42798 17.5055 7.48984 16.9815 8.19465C16.5247 8.80897 16.1303 9.33952 15.8988 9.74601C15.4688 10.5012 15.5411 11.1742 15.989 11.768L15.996 11.7771C16.2459 12.0953 16.8631 12.6842 16.9912 12.803C17.9186 13.7034 18.3655 14.3502 18.5782 14.7849H16.4403V14.7851Z" fill="white"/>
</g>
<defs>
<clipPath id="clip0_202_119">
<rect width="20" height="19.961" fill="white"/>
</clipPath>
</defs>
</svg>

<svg width="20" height="20" fill="none" xmlns="http://www.w3.org/2000/svg"><g clip-path="url(#clip0_202_119)"><path d="M17.802 11.957l-.01-.01c-.171-.157-.694-.667-.87-.889-.208-.278-.16-.46-.005-.732.196-.344.59-.873 1.005-1.432 1.332-1.791 2.192-3.031 2.015-3.912l-.096-.47-4.918.002c-.017.046-.274 1.174-1.357 3.094-.786 1.392-1.3 1.829-1.482 1.906l-.028-.008c-.06-.073-.162-.27-.205-.777-.044-.532-.005-1.175.033-1.798.045-.73.083-1.36-.009-1.81l-.15-.735c-.18-.029-.84-.284-2.682-.303-1.594-.016-2.062.214-2.292.417l-.76.671.96.323c.367.124.488.266.588.97.065.459.099 1.23.028 1.919-.1.987-.342 1.17-.355 1.18-.041-.014-.395-.168-1.008-1.465-.425-.899-.798-1.963-1.07-2.74-.313-.889-.257-.7-.415-1.12H-.039l.308.797c1.284 3.324 2.461 5.92 4.038 7.784 1.741 2.06 3.905 3.138 6.82 3.138h.587v-.586c0-.548.045-.942.142-1.241a3.07 3.07 0 01.221-.491c.123-.233.244-.332.31-.347.059-.014.163.03.28.117.332.248.597.574.876.92.404.498.822 1.013 1.484 1.35.362.185 1.025.278 1.39.278h3.544l-.025-.61c-.038-.912-.756-2.053-2.134-3.39zm-1.362 2.828h-.01c-.25.004-.731-.078-.871-.15-.44-.224-.748-.604-1.105-1.044-.313-.386-.636-.786-1.087-1.122-.365-.272-.696-.351-.958-.351-.105 0-.2.012-.28.03-.305.07-.742.289-1.088.945-.098.187-.21.398-.3.674-.093.29-.152.611-.18 1.002-2.197-.125-3.911-.994-5.36-2.707-1.346-1.593-2.405-3.82-3.527-6.652h2.235l.119.337c.293.837.696 1.985 1.17 2.963.679 1.401 1.299 2.026 2.01 2.026.355 0 .673-.15.92-.435.353-.406.558-1.077.627-2.05.054-.766.004-1.53-.056-1.951-.05-.347-.12-.71-.29-1.036.728-.033 1.704.019 2.321.108.056.305.02.906-.016 1.488-.085 1.405-.174 2.854.57 3.532.13.12.27.184.273.186l.379.117c.146-.046.992.384 2.593-2.411.513-.896.991-1.928 1.248-2.602.597-.001 2.63.001 2.868.002-.338.744-1.14 1.806-1.663 2.51-.457.615-.852 1.146-1.083 1.552-.43.755-.358 1.428.09 2.022l.007.01c.25.317.867.906.995 1.025.928.9 1.375 1.547 1.587 1.982H16.44z" fill="#fff"/></g><defs><clipPath id="clip0_202_119"><path fill="#fff" d="M0 0h20v19.961H0z"/></clipPath></defs></svg>
